storage/app/icons/phosphoricons/light/vault-light.svg

<svg xmlns="http://www.w3.org/2000/svg" fill="currentColor" viewBox="0 0 256 256"><path d="M216 42H40a14 14 0 0 0-14 14v136a14 14 0 0 0 14 14h18v18a6 6 0 0 0 12 0v-18h116v18a6 6 0 0 0 12 0v-18h18a14 14 0 0 0 14-14V56a14 14 0 0 0-14-14m0 152H40a2 2 0 0 1-2-2V56a2 2 0 0 1 2-2h176a2 2 0 0 1 2 2v66h-20.4a46 46 0 1 0 0 12H218v58a2 2 0 0 1-2 2m-51.37-72a14 14 0 1 0 0 12h20.83a34 34 0 1 1 0-12Z"/></svg>

<svg xmlns="http://www.w3.org/2000/svg" viewBox="0 0 256 256" fill="currentColor"><path d="M216,42H40A14,14,0,0,0,26,56V192a14,14,0,0,0,14,14H58v18a6,6,0,0,0,12,0V206H186v18a6,6,0,0,0,12,0V206h18a14,14,0,0,0,14-14V56A14,14,0,0,0,216,42Zm0,152H40a2,2,0,0,1-2-2V56a2,2,0,0,1,2-2H216a2,2,0,0,1,2,2v66H197.6a46,46,0,1,0,0,12H218v58A2,2,0,0,1,216,194Zm-51.37-72a14,14,0,1,0,0,12h20.83a34,34,0,1,1,0-12Z"/></svg>
